!!!COM: Anon.
!!!OTL: Eram tre^s costureirinhas
!!!OTL: Romanceiro Folclorico do Brasil
!!!CNT: Brasil
!!!OCY: Brasil
!!!ODT: <1971///
!!!PSR: Irmaos Vitale
!!!PSP: Sao Paulo, Brasil
!!!PDT: 1950///
!!!PPE: Rossini Tavares de Lima
!!!PPG: page 47
!! Romance: Costureira Ou Modista
!! Place: Sao Paulo, Brasil
**kern
*clefG2
*k[]
*M3/4
*MM112
4c
4d
=
2e
4g
=
2c
4d
=
4c
2B
=
4r
4d
4e
=
2f
4a
=
2f
4g
=
4f
2e
=
4r
4g
4f
=
4b
2a
=
4f
4e
4d
=
4a
2f
=
4r
4e
4c
=
2G
4c
=
2B
4d
=
4c
4c
==
*-
